svg/700/sharp/mark_email_unread.svg

<svg xmlns="http://www.w3.org/2000/svg" width="48" height="48" viewBox="0 -960 960 960"><path d="M55-135v-691h509q-9 24-11 47.5t2 47.5H154l326 218 140-94q14 13 31 22.67 17 9.68 35 15.33L480-430 149-653v424h662v-332q26.79-5.78 50.94-18.86Q886.09-592.94 906-612v477H55Zm94-596v502-502Zm610.88 98q-52.96 0-89.92-37.08Q633-707.15 633-760.12q0-52.96 37.08-89.92Q707.15-887 760.12-887q52.96 0 89.92 37.08Q887-812.85 887-759.88q0 52.96-37.08 89.92Q812.85-633 759.88-633Z"/></svg>

<svg xmlns="http://www.w3.org/2000/svg" width="48" height="48" viewBox="0 -960 960 960"><path d="M55-135v-691h509q-9 24-11 47.5t2 47.5H154l326 218 140-94q14 13 31 22.67 17 9.68 35 15.33L480-430 149-653v424h662v-332q26.79-5.78 50.94-18.86Q886.09-592.94 906-612v477H55Zm94-596v502-502Zm521 60.88q-37-37.12-37-90T670.12-850q37.12-37 90-37T850-849.88q37 37.12 37 90T849.88-670q-37.12 37-90 37T670-670.12Z"/></svg>
